X:99
T:Irish Man's Choice, The
M:9/8
L:1/8
B:Thompson's Compleat Collection of 200 Favourite Country Dances, vol. 1 (London, 1757)
Z:Transcribed and edited by Fynnian Titford-Mock, 2007
Z:abc's:AK/Fiddler's Companion
K:Dmin
d|cAA AGA FGA|c2c cdc ccd|cAA AGA FGA|D2d de^c d2:|
|:d/c/|A2f fgf ffA|ccc cdc ccd|cAA AGA FEF|1 D2d de^c d2:|2
D2d de^c dcd|:A2A AGA F3|ABc ccc def|AGA AGA FEF|D2d de^c d3:|

